%
(Header)
(Generated by gcodetools from Inkscape.)
(Using default header. To add your own header create file "header" in the output dir.)
M3
(Header end.)
G21 (All units in mm)

(Start cutting path id: path46421)
(Change tool to Default tool)

G00 Z45.000000
G00 X58.858649 Y18.007766

G01 Z-1.000000 F100.0(Penetrate)
G01 X59.416003 Y18.573256 Z-1.000000 F150.000000
G03 X59.909696 Y17.988293 Z-1.000000 I1.326128 J0.618402
G03 X60.551053 Y17.788079 Z-1.000000 I0.641357 J0.927144
G03 X61.006509 Y17.893123 Z-1.000000 I0.000000 J1.039927
G03 X61.344367 Y18.174565 Z-1.000000 I-0.403096 J0.827409
G03 X61.568229 Y18.590075 Z-1.000000 I-1.285025 J0.960386
G03 X61.820356 Y19.492687 Z-1.000000 I-5.949021 J2.148260
G01 X62.751992 Y24.187481 Z-1.000000
G01 X61.665761 Y24.187481 Z-1.000000
G01 X62.239389 Y24.789586 Z-1.000000
G01 X64.859360 Y24.789586 Z-1.000000
G01 X64.232845 Y24.187481 Z-1.000000
G01 X63.606330 Y24.187481 Z-1.000000
G01 X62.813016 Y20.200568 Z-1.000000
G02 X62.407885 Y18.955140 Z-1.000000 I-5.523153 J1.108040
G02 X61.881380 Y18.174565 Z-1.000000 I-2.645225 J1.216378
G02 X61.133708 Y17.648320 Z-1.000000 I-1.642302 J1.539072
G02 X60.237796 Y17.462616 Z-1.000000 I-0.895912 J2.068276
G02 X59.531666 Y17.597113 Z-1.000000 I0.000000 J1.920897
G02 X58.858649 Y18.007766 Z-1.000000 I0.849459 J2.149002
G01 X58.858649 Y18.007766 Z-1.000000
G00 Z45.000000

(End cutting path id: path46421)


(Start cutting path id: path46421)
(Change tool to Default tool)

G00 Z45.000000
G00 X58.858649 Y18.007766

G01 Z-1.500000 F100.0(Penetrate)
G01 X59.416003 Y18.573256 Z-1.500000 F150.000000
G03 X59.909696 Y17.988293 Z-1.500000 I1.326128 J0.618402
G03 X60.551053 Y17.788079 Z-1.500000 I0.641357 J0.927144
G03 X61.006509 Y17.893123 Z-1.500000 I0.000000 J1.039927
G03 X61.344367 Y18.174565 Z-1.500000 I-0.403096 J0.827409
G03 X61.568229 Y18.590075 Z-1.500000 I-1.285025 J0.960386
G03 X61.820356 Y19.492687 Z-1.500000 I-5.949021 J2.148260
G01 X62.751992 Y24.187481 Z-1.500000
G01 X61.665761 Y24.187481 Z-1.500000
G01 X62.239389 Y24.789586 Z-1.500000
G01 X64.859360 Y24.789586 Z-1.500000
G01 X64.232845 Y24.187481 Z-1.500000
G01 X63.606330 Y24.187481 Z-1.500000
G01 X62.813016 Y20.200568 Z-1.500000
G02 X62.407885 Y18.955140 Z-1.500000 I-5.523153 J1.108040
G02 X61.881380 Y18.174565 Z-1.500000 I-2.645225 J1.216378
G02 X61.133708 Y17.648320 Z-1.500000 I-1.642302 J1.539072
G02 X60.237796 Y17.462616 Z-1.500000 I-0.895912 J2.068276
G02 X59.531666 Y17.597113 Z-1.500000 I0.000000 J1.920897
G02 X58.858649 Y18.007766 Z-1.500000 I0.849459 J2.149002
G01 X58.858649 Y18.007766 Z-1.500000
G00 Z45.000000

(End cutting path id: path46421)


(Footer)
M5
G00 X0.0000 Y0.0000
M2
(Using default footer. To add your own footer create file "footer" in the output dir.)
(end)
%